X:1
T:Title
%%score { ( 1 3 5 ) | ( 2 4 ) }
L:1/8
M:6/8
K:Eb
V:1 treble nm="Grand Piano"
V:3 treble 
V:5 treble 
V:2 bass 
V:4 bass 
V:1
 z3 z2[Q:1/4=100] G | G2 G [GB][EG][GB] | [_Gd]2 [Gc] [=GB]2 [GB] | [FA][=EG][FA] [DB]2 [DF] | %4
 G3- G z G | G2 G [GB][EG][GB] | [_Gd]2 [Gc] [=GB]2 [_Gc] | [Fd][Ge][Fd] [=EG]2 [_E=A] | %8
 [DB]3- [DB] z [DB] | [DA]2 [DB] [Ac][Ad][Ac] | [B,EG]2 [B,FA] [EGB]2 G | [Ge][Ge]d c2 [D=B] | %12
 [Ec]3- [Ec] z [Ad] | [Gf]2 [Ge] [GB][FA][EG] |[M:7/8] [Ed]2 [Ec] [CE]3 [=B,EF] | %15
[M:3/4] [EG][EG] [EG] [Dc]2 [DB] |[M:5/8] E- E3 z |[M:1/8] B |[M:3/4] c2 z .F3 | c2 z .G3 | %20
 z2 z .=A3 | z =B .B2 Bd | [Ff]2 z2 z2 |[M:7/8] [Dd]2 z[K:bass] z z z2[K:treble] | %24
[M:3/4] [EG][EG] [EG] [Dc]2 [DB] |[M:5/8] [B,E]- [B,E]3 z |] %26
V:2
 z3 z2 [E,B,E] | [E,B,E]2 [E,B,E] [E,B,][E,B,][E,B,] | [E,=A,]2 [E,A,] [E,B,]2 [E,B,] | %3
 [B,,B,][B,,B,][B,,B,] [B,,F,]2 [B,,B,] | [E,B,E]3- [E,B,E] z [E,B,E] | %5
 [E,B,E]2 [E,B,E] [E,B,][E,B,][E,B,] | [E,=A,]2 [E,A,] [E,B,]2 [E,B,] | %7
 [F,B,][F,B,][F,B,] [C,C]2 [F,C] | [B,,B,]3- [B,,B,] z [B,,B,] | %9
 [B,,B,]2 [B,,B,] [B,,B,][B,,B,][B,,B,] | E,2 E, E,2 G, | [C,C][C,C][F,A,F] [G,E]2 [G,,G,] | %12
 [C,G,]3- [C,G,] z [B,,B,] | [E,B,]2 [E,B,] [E,B,][E,B,][E,B,] |[M:7/8] [A,,A,]2 [A,,A,] A,3 A,, | %15
[M:3/4] [B,,B,][B,,B,] [B,,B,] [B,,F,]2 [B,,A,] |[M:5/8] [E,G,B,]- [E,G,B,]3 z |[M:1/8] B, | %18
[M:3/4][K:treble] z D .[B,DA]2[K:bass] B,[K:treble][B,DA] | z E .[B,EG]2[K:bass] B,[G,B,E] | %20
 D,-[D,-G,=B,D] [D,G,B,D]2[K:treble] D[D_G=A] | z[K:treble] G .G2[K:bass][K:treble] A[D=B] | %22
 [E,,E,][E,G,] [E,G,B,]E,, E,E, |[M:7/8] A,,E,[E,A,C] A,,3 A,, | %24
[M:3/4] [B,,B,][B,,B,] [B,,B,] [B,,F,]2 [B,,A,] |[M:5/8] [E,G,]- [E,G,]3 z |] %26
V:3
 x6 | x6 | x6 | x6 | x6 | x6 | x6 | x6 | x6 | x6 | x6 | x6 | x6 | x6 |[M:7/8] x7 |[M:3/4] x6 | %16
[M:5/8] x5 |[M:1/8] x |[M:3/4] z A .B2 DB/B/ | z G .B2 EG | GG .G2 _Gd | [Dd]6 | %22
 z B, [Ee][B,B] [A,B,EA][G,B,EG] |[M:7/8] z A,c[K:bass] [E,A,CE]3[K:treble] [=B,EF] |[M:3/4] x6 | %25
[M:5/8] x5 |] %26
V:4
 x6 | x6 | x6 | x6 | x6 | x6 | x6 | x6 | x6 | x6 | x6 | x6 | x6 | x6 |[M:7/8] x7 |[M:3/4] x6 | %16
[M:5/8] x5 |[M:1/8] x |[M:3/4][K:treble] C2 z[K:bass] .F,3[K:treble] | C2 z .G,3[K:bass] | %20
 .G,2 z [D,,D,]3[K:treble] | [G,,G,]3[K:treble][K:bass] F,,3[K:treble] | x6 |[M:7/8] x7 | %24
[M:3/4] x6 |[M:5/8] x5 |] %26
V:5
 x6 | x6 | x6 | x6 | x6 | x6 | x6 | x6 | x6 | x6 | x6 | x6 | x6 | x6 |[M:7/8] x7 |[M:3/4] x6 | %16
[M:5/8] x5 |[M:1/8] x |[M:3/4] x6 | x6 | x6 | z2 z F,3 | x6 |[M:7/8] x3[K:bass] x3[K:treble] x | %24
[M:3/4] x6 |[M:5/8] x5 |] %26

